resources/svg/myspace.svg

<svg viewBox="0 0 1200 1200"><path d="M330.889 894.143l-.924 74.684H0v-74.684C0 803.62 76.231 731.11 166.756 731.11c90.525-.001 165.299 72.515 164.133 163.033zm-14.193-339.729c0 82.965-66.974 150.223-149.939 150.223c-82.967 0-150.508-67.258-150.508-150.223c0-82.967 67.542-150.224 150.508-150.224c82.966 0 149.939 67.257 149.939 150.224zm423.391 328.287l-1.063 86.123H358.503v-86.123c0-104.396 87.911-188.014 192.306-188.014c104.395.001 190.623 83.627 189.278 188.014zm-16.366-391.78c0 95.678-77.233 173.241-172.912 173.241c-95.678 0-173.567-77.563-173.567-173.241c0-95.677 77.89-173.239 173.566-173.239c95.677 0 172.913 77.563 172.913 173.239zm476.261 380.337l-1.206 97.566H767.704v-97.566c0-118.264 99.59-212.99 217.854-212.99c118.264 0 215.948 94.738 214.424 212.99zm-18.54-443.828c0 108.39-87.495 196.255-195.886 196.255c-108.389 0-196.626-87.866-196.626-196.255s88.237-196.256 196.626-196.256c108.391 0 195.886 87.868 195.886 196.256z" fill="currentColor"/></svg>

<svg xmlns="http://www.w3.org/2000/svg" docname="myspace.svg" version="0.48.4 r9939" x="0px" y="0px" viewBox="0 0 1200 1200" enable-background="new 0 0 1200 1200" xml:space="preserve" fill="currentColor"><path id="path14818" connector-curvature="0" d="M330.889,894.143l-0.924,74.684H0v-74.684 c0-90.523,76.231-163.033,166.756-163.033C257.281,731.109,332.055,803.625,330.889,894.143L330.889,894.143z M316.696,554.414 c0,82.965-66.974,150.223-149.939,150.223c-82.967,0-150.508-67.258-150.508-150.223c0-82.967,67.542-150.224,150.508-150.224 C249.723,404.19,316.696,471.447,316.696,554.414z M740.087,882.701l-1.063,86.123H358.503v-86.123 c0-104.396,87.911-188.014,192.306-188.014C655.204,694.688,741.432,778.314,740.087,882.701L740.087,882.701z M723.721,490.921 c0,95.678-77.233,173.241-172.912,173.241c-95.678,0-173.567-77.563-173.567-173.241c0-95.677,77.89-173.239,173.566-173.239 C646.485,317.682,723.721,395.245,723.721,490.921L723.721,490.921z M1199.982,871.258l-1.206,97.566H767.704v-97.566 c0-118.264,99.59-212.99,217.854-212.99C1103.822,658.268,1201.506,753.006,1199.982,871.258L1199.982,871.258z M1181.442,427.43 c0,108.39-87.495,196.255-195.886,196.255c-108.389,0-196.626-87.866-196.626-196.255c0-108.389,88.237-196.256,196.626-196.256 C1093.947,231.174,1181.442,319.042,1181.442,427.43L1181.442,427.43z"/></svg>
